packages/core/src/svgs/tokens/mono/XPX.svg

<svg width="24" height="24" viewBox="0 0 24 24" fill="none" xmlns="http://www.w3.org/2000/svg">
<path d="M8.48489 2.24438C5.92672 2.77166 3.32006 3.8565 2.33582 4.33225C2.08854 7.90805 3.29824 11.3752 3.93399 12.6619C5.93277 10.1504 9.59584 7.3892 10.5316 6.7486C11.1672 6.31346 10.9328 5.73042 10.7618 5.41831C10.1291 4.26074 8.98064 2.82014 8.48489 2.24438Z" fill="white"/>
<path d="M21.0882 4.04079C17.0276 2.09353 12.39 1.89354 10.5791 2.03657C12.2021 2.98626 13.1404 4.22565 13.5809 4.54383C13.9343 4.79837 14.4234 4.72564 14.624 4.65716C16.7748 3.75655 19.8299 3.87109 21.0882 4.04079Z" fill="white"/>
<path d="M21.6897 5.0332C21.8381 9.49799 19.6605 14.0029 18.5527 15.6974C18.5527 15.3859 16.7987 9.97074 16.2206 8.76773C15.7582 7.80471 15.9261 7.2932 16.2206 7.08714C18.5654 5.44412 20.8436 5.0332 21.6897 5.0332Z" fill="white"/>
<path d="M11.9022 9.22369C9.04167 10.3485 5.67016 12.7528 4.34229 13.8145C6.28591 18.0339 10.2956 21.0297 12.0574 22C14.7314 20.3121 16.8767 17.9625 17.6149 16.9987C16.4883 14.0484 13.8453 10.0637 13.301 9.41884C12.8658 8.90311 12.2411 9.08977 11.9022 9.22369Z" fill="white"/>
</svg>

<svg xmlns="http://www.w3.org/2000/svg" width="24" height="24" fill="none" viewBox="0 0 24 24">
    <path fill="#fff" d="M8.485 2.244c-2.558.528-5.165 1.612-6.15 2.088-.246 3.576.963 7.043 1.599 8.33 1.999-2.512 5.662-5.273 6.598-5.913.635-.436.4-1.019.23-1.33C10.129 4.26 8.98 2.82 8.485 2.243M21.088 4.04c-4.06-1.946-8.698-2.146-10.509-2.003 1.623.95 2.561 2.189 3.002 2.507.353.254.842.182 1.043.113 2.15-.9 5.206-.786 6.464-.616m.602.992c.148 4.465-2.03 8.97-3.137 10.664 0-.311-1.754-5.726-2.332-6.93-.463-.962-.295-1.474 0-1.68 2.344-1.643 4.623-2.054 5.469-2.054m-9.788 4.191c-2.86 1.124-6.232 3.529-7.56 4.59 1.944 4.22 5.954 7.216 7.715 8.186 2.674-1.688 4.82-4.038 5.558-5.001-1.127-2.95-3.77-6.935-4.314-7.58-.435-.516-1.06-.33-1.399-.195"/>
</svg>
